illustrations/assets/Bluetooth permissons/il_axis_bluetooth_permissions_light.svg

<svg xmlns="http://www.w3.org/2000/svg" width="231" height="160" fill="none" viewBox="0 0 231 160">
  <path fill="#ECEBEA" d="M115.414 144.8c34.267 0 62.048-27.801 62.048-62.2153s-27.903-62.2152-62.048-62.2152c-34.2674 0-62.0483 27.8009-62.0483 62.2152 0 34.4143 27.7809 62.2153 62.0483 62.2153Z"/>
  <path fill="#E8DFD3" d="M173.423 41.802c2.771 0 5.018-2.2481 5.018-5.0213s-2.247-5.0213-5.018-5.0213-5.017 2.2481-5.017 5.0213 2.246 5.0213 5.017 5.0213ZM180.766 22.2068c1.893 0 3.427-1.5353 3.427-3.4292 0-1.8939-1.534-3.4292-3.427-3.4292-1.892 0-3.426 1.5353-3.426 3.4292 0 1.8939 1.534 3.4292 3.426 3.4292ZM56.6704 41.6797c1.8925 0 3.4267-1.5353 3.4267-3.4292 0-1.8939-1.5342-3.4292-3.4267-3.4292-1.8926 0-3.4267 1.5353-3.4267 3.4292 0 1.8939 1.5341 3.4292 3.4267 3.4292ZM35.7426 107.814c3.5147 0 6.3639-2.852 6.3639-6.369 0-3.5172-2.8492-6.3685-6.3639-6.3685s-6.3639 2.8513-6.3639 6.3685c0 3.517 2.8492 6.369 6.3639 6.369Z"/>
  <mask id="mask0_3831_4590" width="125" height="137" x="53" y="8" maskUnits="userSpaceOnUse" style="mask-type:alpha">
    <path fill="#D9D9D9" d="M169.171 8H63.8463v40.2513c-6.5013 9.834-10.2875 21.6334-10.2875 34.3335 0 34.4142 27.8009 62.2152 62.0932 62.2152 34.291 0 62.092-27.801 62.092-62.2152 0-11.5196-3.128-22.2981-8.573-31.5411V8Z"/>
  </mask>
  <g filter="url(#filter0_d_3831_4590)" mask="url(#mask0_3831_4590)">
    <path fill="url(#paint0_linear_3831_4590)" d="M72.6163 147.616c-2.4704 0-4.4788-1.991-4.4999-4.461L67.0522 18.2759c0-3.0334 2.4801-5.3773 5.5113-5.3773h86.5275c3.031 0 5.511 2.4818 5.511 5.3773V142.239c0 3.033-2.48 5.377-5.511 5.377H72.6163Z"/>
  </g>
  <ellipse cx="115.552" cy="82.3245" fill="url(#paint1_linear_3831_4590)" rx="38.778" ry="46.3181"/>
  <path fill="#fff" fill-rule="evenodd" d="M115.465 51.5752a1.7992 1.7992 0 0 1 1.965.4035l14.486 14.7264c.689.7004.689 1.824 0 2.5244l-12.351 12.5564 12.351 12.5563c.689.7004.689 1.824 0 2.5244L117.43 111.593c-.512.521-1.288.68-1.965.404a1.8015 1.8015 0 0 1-1.118-1.666V87.0905l-12.592 12.8021c-.697.7084-1.8369.7184-2.5456.021-.7087-.6971-.7181-1.8367-.021-2.5455l15.1586-15.4113v-.3418L99.1884 66.2036c-.6971-.7087-.6877-1.8484.021-2.5455s1.8486-.6877 2.5456.021l12.592 12.8021V53.241c0-.7308.442-1.389 1.118-1.6658Zm2.482 33.6997 10.16 10.3295-10.16 10.3296V85.2749Zm0-6.9781v-20.659l10.16 10.3295-10.16 10.3295Z" clip-rule="evenodd"/>
  <defs>
    <linearGradient id="paint0_linear_3831_4590" x1="115.859" x2="115.859" y1="150.733" y2="11.4462" gradientUnits="userSpaceOnUse">
      <stop stop-color="#FDFEFF"/>
      <stop offset=".9964" stop-color="#F5F2EC"/>
    </linearGradient>
    <linearGradient id="paint1_linear_3831_4590" x1="114.833" x2="116.643" y1="21.9443" y2="91.1918" gradientUnits="userSpaceOnUse">
      <stop stop-color="#E1DAD0"/>
      <stop offset="1" stop-color="#CCC1B1"/>
    </linearGradient>
    <filter id="filter0_d_3831_4590" width="119.15" height="156.318" x="56.2522" y="8.3986" color-interpolation-filters="sRGB" filterUnits="userSpaceOnUse">
      <feFlood flood-opacity="0" result="BackgroundImageFix"/>
      <feColorMatrix in="SourceAlpha" result="hardAlpha" values="0 0 0 0 0 0 0 0 0 0 0 0 0 0 0 0 0 0 127 0"/>
      <feOffset dy="6.3"/>
      <feGaussianBlur stdDeviation="5.4"/>
      <feColorMatrix values="0 0 0 0 0.576471 0 0 0 0 0.501961 0 0 0 0 0.396078 0 0 0 0.17 0"/>
      <feBlend in2="BackgroundImageFix" result="effect1_dropShadow_3831_4590"/>
      <feBlend in="SourceGraphic" in2="effect1_dropShadow_3831_4590" result="shape"/>
    </filter>
  </defs>
</svg>

<svg width="231" height="160" viewBox="0 0 231 160" fill="none" xmlns="http://www.w3.org/2000/svg">
<path d="M115.414 144.8C149.681 144.8 177.462 116.999 177.462 82.5847C177.462 48.1704 149.559 20.3695 115.414 20.3695C81.1466 20.3695 53.3657 48.1704 53.3657 82.5847C53.3657 116.999 81.1466 144.8 115.414 144.8Z" fill="#ECEBEA"/>
<path d="M173.423 41.802C176.194 41.802 178.441 39.5539 178.441 36.7807C178.441 34.0075 176.194 31.7594 173.423 31.7594C170.652 31.7594 168.406 34.0075 168.406 36.7807C168.406 39.5539 170.652 41.802 173.423 41.802Z" fill="#E8DFD3"/>
<path d="M180.766 22.2068C182.659 22.2068 184.193 20.6715 184.193 18.7776C184.193 16.8837 182.659 15.3484 180.766 15.3484C178.874 15.3484 177.34 16.8837 177.34 18.7776C177.34 20.6715 178.874 22.2068 180.766 22.2068Z" fill="#E8DFD3"/>
<path d="M56.6704 41.6797C58.5629 41.6797 60.0971 40.1444 60.0971 38.2505C60.0971 36.3566 58.5629 34.8213 56.6704 34.8213C54.7778 34.8213 53.2437 36.3566 53.2437 38.2505C53.2437 40.1444 54.7778 41.6797 56.6704 41.6797Z" fill="#E8DFD3"/>
<path d="M35.7426 107.814C39.2573 107.814 42.1065 104.962 42.1065 101.445C42.1065 97.9278 39.2573 95.0765 35.7426 95.0765C32.2279 95.0765 29.3787 97.9278 29.3787 101.445C29.3787 104.962 32.2279 107.814 35.7426 107.814Z" fill="#E8DFD3"/>
<mask id="mask0_3831_4590" style="mask-type:alpha" maskUnits="userSpaceOnUse" x="53" y="8" width="125" height="137">
<path d="M169.171 8H63.8463V48.2513C57.345 58.0853 53.5588 69.8847 53.5588 82.5848C53.5588 116.999 81.3597 144.8 115.652 144.8C149.943 144.8 177.744 116.999 177.744 82.5848C177.744 71.0652 174.616 60.2867 169.171 51.0437V8Z" fill="#EBEBEB"/>
</mask>
<g mask="url(#mask0_3831_4590)">
<g filter="url(#filter0_d_3831_4590)">
<path d="M72.6163 147.616C70.146 147.616 68.1375 145.625 68.1164 143.155L67.0522 18.2759C67.0522 15.2425 69.5323 12.8986 72.5635 12.8986L159.091 12.8986C162.122 12.8986 164.602 15.3804 164.602 18.2759L164.602 142.239C164.602 145.272 162.122 147.616 159.091 147.616L96.3997 147.616H72.6163Z" fill="url(#paint0_linear_3831_4590)"/>
</g>
</g>
<ellipse cx="115.552" cy="82.3245" rx="38.778" ry="46.3181" fill="url(#paint1_linear_3831_4590)"/>
<path fill-rule="evenodd" clip-rule="evenodd" d="M115.465 51.5752C116.142 51.2983 116.918 51.4578 117.43 51.9787L131.916 66.7051C132.605 67.4055 132.605 68.5291 131.916 69.2295L119.565 81.7859L131.916 94.3422C132.605 95.0426 132.605 96.1662 131.916 96.8666L117.43 111.593C116.918 112.114 116.142 112.273 115.465 111.997C114.789 111.72 114.347 111.061 114.347 110.331V87.0905L101.755 99.8926C101.058 100.601 99.9181 100.611 99.2094 99.9136C98.5007 99.2165 98.4913 98.0769 99.1884 97.3681L114.347 81.9568V81.615L99.1884 66.2036C98.4913 65.4949 98.5007 64.3552 99.2094 63.6581C99.9181 62.961 101.058 62.9704 101.755 63.6791L114.347 76.4812V53.241C114.347 52.5102 114.789 51.852 115.465 51.5752ZM117.947 85.2749L128.107 95.6044L117.947 105.934V85.2749ZM117.947 78.2968V57.6378L128.107 67.9673L117.947 78.2968Z" fill="white"/>
<defs>
<filter id="filter0_d_3831_4590" x="56.2522" y="8.39856" width="119.15" height="156.318" filterUnits="userSpaceOnUse" color-interpolation-filters="sRGB">
<feFlood flood-opacity="0" result="BackgroundImageFix"/>
<feColorMatrix in="SourceAlpha" type="matrix" values="0 0 0 0 0 0 0 0 0 0 0 0 0 0 0 0 0 0 127 0" result="hardAlpha"/>
<feOffset dy="6.3"/>
<feGaussianBlur stdDeviation="5.4"/>
<feColorMatrix type="matrix" values="0 0 0 0 0.576471 0 0 0 0 0.501961 0 0 0 0 0.396078 0 0 0 0.17 0"/>
<feBlend mode="normal" in2="BackgroundImageFix" result="effect1_dropShadow_3831_4590"/>
<feBlend mode="normal" in="SourceGraphic" in2="effect1_dropShadow_3831_4590" result="shape"/>
</filter>
<linearGradient id="paint0_linear_3831_4590" x1="115.859" y1="150.733" x2="115.859" y2="11.4462" gradientUnits="userSpaceOnUse">
<stop stop-color="#FDFEFF"/>
<stop offset="0.9964" stop-color="#F5F2EC"/>
</linearGradient>
<linearGradient id="paint1_linear_3831_4590" x1="114.833" y1="21.9443" x2="116.643" y2="91.1918" gradientUnits="userSpaceOnUse">
<stop stop-color="#E1DAD0"/>
<stop offset="1" stop-color="#CCC1B1"/>
</linearGradient>
</defs>
</svg>
